production/images/icons/btn-close.svg

<svg width="14" height="13" viewBox="0 0 14 13" fill="none" xmlns="http://www.w3.org/2000/svg">
<path fill-rule="evenodd" clip-rule="evenodd" d="M7.00112 7.82802L11.3904 12.2173L12.8046 10.8031L8.41533 6.41381L13.2184 1.6107L11.8042 0.196489L7.00112 4.9996L2.19803 0.196504L0.783814 1.61072L5.5869 6.41381L1.19762 10.8031L2.61184 12.2173L7.00112 7.82802Z" fill="#4F5A67"/>
</svg>

<svg width="14" height="13" viewBox="0 0 14 13" fill="none" xmlns="http://www.w3.org/2000/svg"><path fill-rule="evenodd" clip-rule="evenodd" d="M7.001 7.828l4.39 4.39 1.414-1.415-4.39-4.39 4.803-4.802L11.804.196 7.001 5 2.198.197.784 1.61l4.803 4.803-4.39 4.39 1.415 1.413 4.39-4.389z" fill="#4F5A67"/></svg>
